symbolic/22x22/places/folder-palebrown-templates-open.svg

<svg xmlns="http://www.w3.org/2000/svg" width="22" height="22" version="1"><rect style="opacity:.2" width="20" height="12" x="1" y="8.5" rx="1" ry="1"/><path style="fill:#bea389" d="M1 16c0 .554.446 1 1 1h18c.554 0 1-.446 1-1V5c0-.554-.446-1-1-1h-9C9.5 4 9 2 7.5 2H2c-.554 0-1 .446-1 1"/><rect style="opacity:.2" width="20" height="10" x="1" y="9.5" rx="1" ry="1"/><rect style="fill:#e4e4e4" width="16" height="8" x="3" y="6" rx="1" ry="1"/><rect style="fill:#d1bfae" width="20" height="10" x="1" y="10" rx="1" ry="1"/><path style="opacity:.1;fill:#fff" d="M2 2c-.554 0-1 .446-1 1v.5c0-.554.446-1 1-1h5.5c1.5 0 2 2 3.5 2h9c.554 0 1 .446 1 1V5c0-.554-.446-1-1-1h-9C9.5 4 9 2 7.5 2z"/><path style="fill:#a38d7b" d="M8.5 11c-.277 0-.5.223-.5.5v5h.5V16H9v-4h2.5v2H13v4.5h.5V18h.5v-5l-2-2zm5 7.5v.5h.5v-.5zm-.5 0h-.5v.5h.5zm-.5 0V18H12v.5zm-.5 0h-.5v.5h.5zm-.5 0V18H11v.5zm-.5 0h-.5v.5h.5zm-.5 0V18H10v.5zm-.5 0h-.5v.5h.5zm-.5 0V18H9v.5zm-.5 0h-.5v.5H9zm-.5 0V18H8v.5zm0-.5H9v-.5h-.5zm0-.5V17H8v.5zm0-.5H9v-.5h-.5z"/></svg>

<svg xmlns="http://www.w3.org/2000/svg" width="22" height="22" version="1">
 <rect style="opacity:0.2" width="20" height="12" x="1" y="8.5" rx="1" ry="1"/>
 <path style="fill:#bea389" d="M 1,16 C 1,16.554 1.446,17 2,17 H 20 C 20.554,17 21,16.554 21,16 V 5 C 21,4.446 20.554,4 20,4 H 11 C 9.5,4 9,2 7.5,2 H 2 C 1.446,2 1,2.446 1,3"/>
 <rect style="opacity:0.2" width="20" height="10" x="1" y="9.5" rx="1" ry="1"/>
 <rect style="fill:#e4e4e4" width="16" height="8" x="3" y="6" rx="1" ry="1"/>
 <rect style="fill:#d1bfae" width="20" height="10" x="1" y="10" rx="1" ry="1"/>
 <path style="opacity:0.1;fill:#ffffff" d="M 2,2 C 1.446,2 1,2.446 1,3 V 3.5 C 1,2.946 1.446,2.5 2,2.5 H 7.5 C 9,2.5 9.5,4.5 11,4.5 H 20 C 20.554,4.5 21,4.946 21,5.5 V 5 C 21,4.446 20.554,4 20,4 H 11 C 9.5,4 9,2 7.5,2 Z"/>
 <path style="fill:#a38d7b" d="M 8.5,11 C 8.223,11 8,11.223 8,11.5 V 16.5 H 8.5 V 16 H 9 V 12 H 11.5 V 14 H 13 V 18 18.5 H 13.5 V 18 H 14 V 13 L 12,11 Z M 13.5,18.5 V 19 H 14 V 18.5 Z M 13,18.5 H 12.5 V 19 H 13 Z M 12.5,18.5 V 18 H 12 V 18.5 Z M 12,18.5 H 11.5 V 19 H 12 Z M 11.5,18.5 V 18 H 11 V 18.5 Z M 11,18.5 H 10.5 V 19 H 11 Z M 10.5,18.5 V 18 H 10 V 18.5 Z M 10,18.5 H 9.5 V 19 H 10 Z M 9.5,18.5 V 18 H 9 V 18.5 Z M 9,18.5 H 8.5 V 19 H 9 Z M 8.5,18.5 V 18 H 8 V 18.5 Z M 8.5,18 H 9 V 17.5 H 8.5 Z M 8.5,17.5 V 17 H 8 V 17.5 Z M 8.5,17 H 9 V 16.5 H 8.5 Z"/>
</svg>
